X:1
T:Keep in the Line
T:William James Kirkpatrick
T:Keep in the Line
T:Public Domain
T:Public Domain
C:William James Kirkpatrick
Z:Public Domain
%%score ( 1 2 ) ( 3 4 )
L:1/8
M:4/4
K:C
V:1 treble 
V:2 treble 
V:3 bass 
V:4 bass 
V:1
 [EG]2 [CE]>[DF] [EG]2 [Ec]2 | [FB]2 [DF]>[DF] [FB]4 | [EA]2 [CE]>[CE] [EA]2 [CE]2 | %3
w: 1.~Sol- diers for Je- sus,|rise and a- way,|Hark! ’Tis the war cry|
w: 2.~Sol- diers for Je- sus,|hap- py are we;|He our Pro- tect- or,|
w: 3.~Sol- diers for Je- sus,|glad- ly we go,|Smil- ing at dan- ger,|
w: 4.~Sol- diers for Je- sus,|vic- t’ry is nigh,|Work till we gain it,|
 [DG]2 [B,D]>[B,D] (D2 F2) | [EG]2 [CE]>[DF] [EG]2 [Ec]2 | [Fd]2 [FA]>[FA] [Fd]4 | %6
w: sound- ing to- day; *|our Com- mand- er calls|from the skies; For-|
w: near us will be, *|in His mer- cy, change-|less, di- vine; March|
w: brav- ing the foe; *|are our land- marks, bright-|ly they shine; March|
w: rest by and by; *|let our cour- age ne-|ver de- cline; March|
 [Ge]2 [Ec]>[FA] [EG]2 [Ec]2 | [Fd]2 [Ec]>[DB] [Ec]4 ||"^Refrain" [_Ec]2 [Ec]>[Ec] [E_e]2 [Ee]2 | %9
w: ward to con- quest, lose|not the prize! *||
w: on with firm- ness, keep|in the line. Now|like an ar- my march-|
w: on re- joic- ing, keep|in the line. *||
w: on with bold- ness, keep|in the line. *||
 [F_A]2 [CA]>[FA] [Ec]4 | [F_B]2 [FB]>[FB] [F_d]2 [Fd]2 | [D_A]2 [DG]>[DA] [_E_B]4 | %12
w: |||
w: ing a- long, Fear-|less and faith- ful, val-|iant and strong, Up|
w: |||
w: |||
 [Ec]2 [Ec]>[Ec] [Fc]2 [Fc]2 | [Gc]2 [Gc]>[Gd] [Ge]4 | [Ge]2 [Ec]>[FA] [EG]2 [Ec]2 | %15
w: |||
w: with our ban- ners, bright-|ly they shine; March|on to- ge- ther, keep|
w: |||
w: |||
 [Fd]2 [Ec]>[DB] [Ec]4 |] %16
w: |
w: in the line. *|
w: |
w: |
V:2
 x8 | x8 | x8 | x4 G4 | x8 | x8 | x8 | x8 || x8 | x8 | x8 | x8 | x8 | x8 | x8 | x8 |] %16
w: |||Lo!|||||||||||||
w: |||Trust|||||||||||||
w: |||Bright|||||||||||||
w: |||O,|||||||||||||
V:3
 [C,C]2 [C,G,]>[C,G,] [C,C]2 [C,G,]2 | G,2 [G,B,]>[G,B,] [G,D]4 | %2
 [C,C]2 [C,G,]>[C,G,] [C,C]2 [C,G,]2 | [G,,B,]2 [G,,G,]>[G,,G,] [G,,B,]4 | %4
 [C,C]2 [C,G,]>[C,G,] [C,C]2 [C,G,]2 | [F,A,]2 [F,D]>[F,D] [F,A,]4 | %6
 [C,C]2 [C,G,]>[C,C] [C,C]2 [C,G,]2 | [G,B,]2 [G,,G,]>[G,,G,] [C,G,]4 || %8
 _A,2 A,>A, [G,_B,]2 [G,B,]2 | [F,C]2 [F,_A,]>[F,A,] [C,G,]4 | %10
 [_D,F,]2 [D,F,]>[D,F,] [_B,,_B,]2 [B,,B,]2 | [F,_B,]2 [F,B,]>[F,_A,] [_E,G,]4 | %12
 [C,G,]2 [C,G,]>[C,G,] [F,A,]2 [F,A,]2 | [E,G,]2 [E,G,]>[G,B,] C4 | %14
 [C,C]2 [C,G,]>[C,C] [C,C]2 [C,G,]2 | [G,B,]2 [G,,G,]>[G,,G,] [C,G,]4 |] %16
V:4
 x8 | G,2 x6 | x8 | x8 | x8 | x8 | x8 | x8 || _A,2 A,>A, x4 | x8 | x8 | x8 | x8 | x4 C4 | x8 | %15
 x8 |] %16

